inst/examples/SuperTinyIcons/www/transparent-auth0.svg

<svg xmlns="http://www.w3.org/2000/svg" aria-label="Auth0" role="img" viewBox="0 0 512 512">
  <rect width="512" height="512" rx="15%" fill="transparent"/>
  <path d="M358.1,378.8 319.6,260 420.5,186.9H295.7l-38.6,-118.7-0.01,-0.03h124.8l38.6,118.7v-0.003l0.03,-0.02c22.4,68.8-0.7,147-62.4,192zm-201.9,0-0.036,0.03L257.13,452.2 358.09,378.84 257.17,305.51ZM93.85,186.85c-23.57,72.57 3.79,149.46 62.36,192l0.01,-0.036L194.77,260.17 93.89,186.87H218.6L257.15,68.2 257.2,68.2H132.4Z" fill="#eb5424"/>
</svg>

<?xml version="1.0" encoding="UTF-8"?>
<svg xmlns="http://www.w3.org/2000/svg" aria-label="Auth0" role="img" viewBox="0 0 512 512">
  <rect width="512" height="512" rx="15%" fill="transparent"/>
  <path d="m358.1 378.8-38.5-118.8 100.9-73.1h-124.8l-38.6-118.7h124.8l38.6 118.7c22.4 68.8-0.7 147-62.4 192zm-201.9 0 100.9 73.4 101-73.4-100.9-73.3zm-62.4-192c-23.6 72.6 3.8 149.5 62.4 192l38.6-118.6-100.9-73.3h124.7l38.5-118.7h0.1-124.8z" fill="#eb5424"/>
</svg>
